X:1
T:Title
%%score { 1 | ( 2 3 ) }
L:1/8
Q:1/4=100
M:4/4
K:E
V:1 treble nm="Grand Piano"
V:2 bass 
V:3 bass 
V:1
 [EG]>[FA] [GB]>[Ac] [GB]2 G2 | c>d e>c B4 | E>F G>[FA] [GB]>[Ac] [GB]>[EG] | [EG]2 [DF]2 [DF]4 | %4
w: J.~H.~Hall * * * * *||||
 [EG]>[FA] [GB]>[Ac] [GB]2 G2 | c>d e>c B4 | E>F G>A [EGB]>[DFB] [=DEB]>[CEA] | %7
w: |||
 [EG]2 [A,DF]2 [G,E]4 | [EGB]>[EGB] [DFB]>[EAB] [EGB]2 [B,EG]2 | [Ec]>[Ec] [Ec]>[Ec] B4 | %10
w: |||
 G>G [^EG]>[EG] [FA]2 [FA]2 | [FA]>[DF] [DB]>[FA] [EG]4 | [EG]>[FA] [GB]>[Ac] [GB]2 G2 | %13
w: |||
 c>d e>c B4 | E>F G>A [EGB]>[DFB] [=DEB]>[CEA] |[M:8/4] [EG]2 [A,DF]2 [G,E]4 z8 |] %16
w: |||
V:2
 [E,B,]>[E,B,] [E,E]>[E,E] [E,E]2 [E,B,E]2 | [A,E]>[A,B,E] [A,CE]>[A,E] [E,G,E]4 | %2
 [E,G,]>[E,A,E] [E,B,E]>[E,B,] [E,E]>[E,E] [E,E]>[E,B,] | [B,,B,]2 [B,,B,]2 [B,,B,]4 | %4
 [E,B,]>[E,B,] [E,E]>[E,E] [E,E]2 [E,B,E]2 | [A,E]>[A,B,E] [A,CE]>[A,E] [E,G,E]4 | z2 E2 z4 | %7
 B,2 B,,2 E,4 | E,>E, B,,>B,, E,2 E,2 | [A,,A,]>[B,,A,] [C,A,]>[D,A,] [E,G,E]4 | %10
 [E,B,E]>[E,B,E] [C,C]>[C,C] [F,C]2 [F,C]2 | [B,,B,]>[B,,B,] [B,,B,]>[B,,B,] [E,B,]4 | %12
 [E,B,]>[E,B,] [E,E]>[E,E] [E,E]2 [E,B,E]2 | [A,E]>[A,B,E] [A,CE]>[A,E] [E,G,E]4 | z2 E2 z4 | %15
[M:8/4] B,2 B,,2 E,4 z8 |] %16
V:3
 x8 | x8 | x8 | x8 | x8 | x8 | [E,G,]>[E,A,E] [E,B,]->[E,B,F] E,>F, G,>A, | x8 | x8 | x8 | x8 | %11
 x8 | x8 | x8 | [E,G,]>[E,A,E] [E,B,]->[E,B,F] E,>F, G,>A, |[M:8/4] x16 |] %16

